outputs/icons/action/log_in_sharp.svg

<svg xmlns="http://www.w3.org/2000/svg" width="1200" height="1200" fill="none"><g clip-path="url(#a)"><path fill="#000" d="m550 350-70 70 130 130H100v100h510L480 780l70 70 250-250zm450 600H600v100h500V150H600v100h400z"/></g><defs><clipPath id="a"><path fill="#fff" d="M0 0h1200v1200H0z"/></clipPath></defs></svg>

<svg width="1200" height="1200" viewBox="0 0 1200 1200" fill="none" xmlns="http://www.w3.org/2000/svg"><g clip-path="url(#clip0_117_775)"><path d="M550 350L480 420L610 550H100V650H610L480 780L550 850L800 600L550 350ZM1000 950H600V1050H1100V150H600V250H1000V950Z" fill="black"/></g><defs><clipPath id="clip0_117_775"><path width="24" fill="white" d="M0 0H1200V1200H0V0z"/></clipPath></defs></svg>
